X:1
T:Title
%%score ( 1 2 ) ( 3 4 )
L:1/8
M:4/4
K:D
V:1 treble nm="Choir Aahs, Staff"
V:2 treble 
V:3 bass nm="Choir Aahs, Staff-1"
V:4 bass 
V:1
 [FA]2 [Fd]2 [Ac]2 [Ac]2 | [GB]2 [FA]4 [EA]2- | [EA]2 D2 [DE]2 [DF]2 | [CE]2 D6 | %4
w: By~Samuel~Sebastian~Wesley * * *||||
 [FA]2 [Fd]2 [Ac]2 [Ac]2 | [GB]2 [FA]4 [EA]2- | [EA]2 D2 [DE]2 [DF]2 | [CE]2 D6 | %8
w: ||||
 D2 [DF]2 D2 [DA]2 | [DF]2 [Fd]4 [=Fc]2- | [Fc]2 [^Fc]2 [FB]2 [EA]2 | [E^G]2 [EA]6 | %12
w: ||||
 [EA]2 [FB]2 [FB]2 [EB]2 | cd [Ec]4 [Dd]2- | [Dd]2 [DE]2 D-[DG] [DF]2 | [CE]2 D6 |] %16
w: ||||
V:2
 x8 | x8 | x8 | x8 | x8 | x8 | x8 | x8 | x8 | x8 | x8 | x8 | x8 | E2 z2 z4 | z4 .F2 z2 | x8 |] %16
V:3
 [D,A,]2 [D,A,]2 [D,F,]2 [D,G,]2 | [D,B,]2 [D,D]4 [C,A,]2- | [C,A,]2 [B,,F,]2 [G,,B,]2 A,2- | %3
 A,G, [D,F,]6 | [D,A,]2 [D,A,]2 [D,F,]2 [D,G,]2 | [D,B,]2 [D,D]4 [C,A,]2- | %6
 [C,A,]2 [B,,F,]2 [G,,B,]2 A,2- | A,G, [D,F,]6 | [D,F,]2 [D,A,]2 [D,F,]2 [C,F,]2 | %9
 [C,A,]2 [B,,^G,]4 [C,G,]2- | [C,G,]2 [F,A,]2 [D,B,]2 [E,C]2 | [E,D]2 [A,,C]6 | %12
 [A,C]2 [A,D]2 [D,D]2 [G,B,]2 | [G,B,]2 [G,A,]4 [F,A,]2- | [F,A,]2 [G,B,]2 D-[B,D] A,2 | %15
 z G, [D,F,]6 |] %16
V:4
 x8 | x8 | z4 z2 A,,2- | A,,2 z2 z4 | x8 | x8 | z4 z2 A,,2- | A,,2 z2 z4 | x8 | x8 | x8 | x8 | x8 | %13
 x8 | z4 .A,2 z2 | A,,2 z2 z4 |] %16

